sources/design/Outline/O.svg

<svg:svg xmlns:cc="http://creativecommons.org/ns#" xmlns:dc="http://purl.org/dc/elements/1.1/" xmlns:inkscape="http://www.inkscape.org/namespaces/inkscape" xmlns:rdf="http://www.w3.org/1999/02/22-rdf-syntax-ns#" xmlns:sodipodi="http://sodipodi.sourceforge.net/DTD/sodipodi-0.dtd" xmlns:svg="http://www.w3.org/2000/svg" xml:space="preserve" width="1000" height="1000" version="1.1" style="clip-rule:evenodd;fill-rule:evenodd;image-rendering:optimizeQuality;shape-rendering:geometricPrecision;text-rendering:geometricPrecision" viewBox="0 0 1000 1000" id="svg10" sodipodi:docname="O.svg" inkscape:version="1.1.1 (3bf5ae0d25, 2021-09-20)"><svg:text text-anchor="middle" x="286.35266" y="-0.38932037" id="top" inkscape:label="top" style="clip-rule:evenodd;fill-rule:evenodd;image-rendering:optimizeQuality;shape-rendering:geometricPrecision;text-rendering:geometricPrecision">✛</svg:text><svg:metadata id="metadata14"><rdf:RDF><cc:Work rdf:about=""><dc:format>image/svg+xml</dc:format><dc:type rdf:resource="http://purl.org/dc/dcmitype/StillImage" /><dc:title /></cc:Work></rdf:RDF></svg:metadata><sodipodi:namedview pagecolor="#ffffff" bordercolor="#666666" borderopacity="1" objecttolerance="10" gridtolerance="10" guidetolerance="10" inkscape:pageopacity="0" inkscape:pageshadow="2" inkscape:window-width="1920" inkscape:window-height="1009" id="namedview12" showgrid="false" inkscape:zoom="0.84890884" inkscape:cx="165.50658" inkscape:cy="321.5893" inkscape:window-x="0" inkscape:window-y="60" inkscape:window-maximized="1" inkscape:current-layer="svg10" showguides="true" inkscape:guide-bbox="true" inkscape:document-rotation="0" inkscape:pagecheckerboard="0"><sodipodi:guide position="0,1000" orientation="0,1" id="guide16" inkscape:label="" inkscape:locked="true" inkscape:color="rgb(0,0,255)" /><sodipodi:guide position="1763.3122,2036.1693" orientation="1000,0" id="guide18" /><sodipodi:guide position="0,200" orientation="0,1" id="guide20" inkscape:label="base" inkscape:locked="true" inkscape:color="rgb(0,0,255)" /><inkscape:grid type="xygrid" id="grid24" originx="-473.37552" originy="-489.69235" /><sodipodi:guide position="0,0" orientation="0,1" id="guide34" inkscape:label="bottom" inkscape:locked="true" inkscape:color="rgb(0,0,255)" /><sodipodi:guide position="225.05109,1693.3186" orientation="0,1" id="guide44" inkscape:label="" inkscape:locked="false" inkscape:color="rgb(0,0,255)" /><sodipodi:guide position="0,900" orientation="0,1" id="guide46" inkscape:label="" inkscape:locked="true" inkscape:color="rgb(0,0,255)" /><sodipodi:guide position="571.83414,567.08529" orientation="1,0" id="guide841" inkscape:label="width" />    </sodipodi:namedview>
 <svg:defs id="defs4"><inkscape:path-effect effect="spiro" id="path-effect856" is_visible="true" lpeversion="1" /><inkscape:path-effect effect="spiro" id="path-effect137" is_visible="true" lpeversion="1" /><inkscape:path-effect effect="spiro" id="path-effect133" is_visible="true" lpeversion="1" /><inkscape:path-effect effect="spiro" id="path-effect114" is_visible="true" lpeversion="1" /><inkscape:path-effect effect="spiro" id="path-effect853" is_visible="true" lpeversion="1" /><inkscape:path-effect effect="spiro" id="path-effect928" is_visible="true" lpeversion="1" /><inkscape:path-effect effect="spiro" id="path-effect921" is_visible="true" lpeversion="1" /><inkscape:path-effect effect="spiro" id="path-effect917" is_visible="true" lpeversion="1" /><inkscape:path-effect effect="spiro" id="path-effect849" is_visible="true" lpeversion="1" /><inkscape:path-effect effect="spiro" id="path-effect851" is_visible="true" lpeversion="1" />
  <svg:style type="text/css" id="style2">
   
    .fil0 {fill:#EF7F1A;fill-rule:nonzero}
   
  </svg:style>
 <inkscape:path-effect effect="spiro" id="path-effect1214" is_visible="true" lpeversion="1" /><inkscape:path-effect effect="spiro" id="path-effect1195" is_visible="true" lpeversion="1" /><inkscape:path-effect effect="spiro" id="path-effect992" is_visible="true" lpeversion="1" /><inkscape:path-effect effect="spiro" id="path-effect1060" is_visible="true" lpeversion="1" /><inkscape:path-effect effect="spiro" id="path-effect1047" is_visible="true" lpeversion="1" /><inkscape:path-effect effect="spiro" id="path-effect1085" is_visible="true" lpeversion="1" /><inkscape:path-effect effect="spiro" id="path-effect1286" is_visible="true" lpeversion="1" /><inkscape:path-effect effect="spiro" id="path-effect117" is_visible="true" lpeversion="1" /></svg:defs>
 
<svg:g id="path135"><svg:path style="color:#000000;clip-rule:nonzero;fill:#1a5fb4;fill-rule:nonzero;stroke-linecap:round;stroke-linejoin:round;-inkscape-stroke:none;paint-order:fill stroke markers;shape-rendering:auto" d="M 280.93164,-28.0 C 229.27203,-27.760877 179.58136,-9.9034395 138.34961,18.927734 C 97.24773,47.668094 65.004371,86.622251 41.726562,129.48242 C -4.7186946,214.99956 -14.93583,312.36041 -14.855469,404.1875 C -14.777859,492.8648 -5.140676599999999,586.73282 38.560547,669.97266 C 60.460153,711.6859000000001 90.801101,749.8880300000001 129.70508,778.77148 C 168.72524,807.7412 215.9624,826.70258 265.80664,829.2793 C 318.28863,831.99238 369.76058,816.3240400000001 412.93945,788.81055 C 455.97760000000005,761.3867300000001 490.25305000000003,722.91912 515.25977,680.0293 C 565.14999,594.46096 577.41357,495.28461000000004 578.04102,401.73633 C 578.65728,309.85518 568.15984,212.41593 521.1875,127.23828000000003 C 497.64596,84.549038 465.0964,45.884994 423.77539,17.542969 C 382.32523,-10.887639 332.5204,-28.238795 280.93164,-28.0 M 281.20898,32.0 C 319.00127,31.825067 357.57848,44.894798 389.83789,67.021484 C 422.22645,89.236753 449.02723000000003,120.63262 468.64844000000005,156.21289000000002 C 508.00161,227.57427 518.6256800000001,314.45516 518.0429700000001,401.33398 C 517.4498000000001,489.77191 505.2014200000001,578.15785 463.4257800000001,649.80859 C 442.5995600000001,685.52831 414.3972600000001,716.73417 380.69531000000006,738.20898 C 347.13409000000007,759.59412 307.2961200000001,771.34406 268.90430000000003,769.35937 C 232.41709,767.47315 195.85933,753.15906 165.4707,730.59766 C 134.96589,707.94999 109.96758,676.90843 91.683594,642.08203 C 55.017633,572.2426 45.218232,488.35086 45.144531,404.13477 C 45.068231,316.94873 55.459909,229.91164 94.451172,158.11914 C 113.89162,122.32449 140.4817,90.648875 172.73242,68.097656 C 204.85327,45.637251 243.36296,32.175182 281.20898,32.0 M 281.63086,81.537109 C 240.11413,80.948607 200.68108999999998,96.277206 169.18944999999997,120.73828 C 137.88330999999997,145.05528 115.01041999999997,177.53414 99.81054699999997,212.29883 C 69.54116099999997,281.53005 69.66730599999997,356.26878999999997 73.45898399999997,424.90430000000003 C 76.69489199999997,483.47946 82.96550299999997,546.5913700000001 111.99022999999997,604.46094 C 126.55271999999997,633.4956500000001 146.81345999999996,660.6197400000001 173.51952999999997,681.65625 C 200.35345999999998,702.79347 233.28545999999997,717.22017 268.82811999999996,719.80469 C 308.87720999999993,722.7169 347.7974899999999,710.26403 379.64843999999994,688.56641 C 411.31040999999993,666.99751 435.34550999999993,637.09127 452.11132999999995,604.5078100000001 C 485.49654999999996,539.62543 489.82606,467.60544000000004 489.77343999999994,401.32031000000006 C 489.72217,336.7362 485.54413,266.91292 454.51172,203.17187 C 438.93645,171.18004 416.635,141.47077 386.99609,119.0625 C 357.20334,96.537909 320.50792,82.088194 281.63086,81.537109 M 280.7793,141.53125 C 305.06021,141.87543 330.21835999999996,151.35526 350.81055,166.92383 C 371.55658999999997,182.60872 388.49073999999996,204.63596 400.56444999999997,229.43555 C 424.83,279.27735 429.72441999999995,339.62269000000003 429.77343999999994,401.36719 C 429.82373999999993,464.69519 424.6769499999999,526.688 398.75976999999995,577.05664 C 385.87438,602.09869 367.76694999999995,624.0612 345.86913999999996,638.97852 C 324.16031,653.76709 297.76651999999996,661.75075 273.17968999999994,659.96289 C 251.30516999999995,658.37226 229.03616999999994,649.00909 210.64647999999994,634.52344 C 192.12893999999994,619.9370700000001 176.87006999999994,599.9848900000001 165.62304999999995,577.56055 C 143.02875999999995,532.51201 136.48221999999996,477.98086 133.36718999999994,421.59375 C 129.72097999999994,355.59152 131.03578999999993,290.65477999999996 154.78515999999993,236.33594 C 166.59465999999992,209.32559 184.05635999999993,185.16469999999998 205.99608999999992,168.12304999999998 C 227.75033999999994,151.22547999999998 254.88128999999992,141.16413999999997 280.7792999999999,141.53124999999997 L 280.7793,141.53125" id="path2391" /></svg:g><svg:g id="g917" transform="translate(-78.546138,-5.1621745)" /></svg:svg>

<svg:svg xmlns:cc="http://creativecommons.org/ns#" xmlns:dc="http://purl.org/dc/elements/1.1/" xmlns:inkscape="http://www.inkscape.org/namespaces/inkscape" xmlns:rdf="http://www.w3.org/1999/02/22-rdf-syntax-ns#" xmlns:sodipodi="http://sodipodi.sourceforge.net/DTD/sodipodi-0.dtd" xmlns:svg="http://www.w3.org/2000/svg" xml:space="preserve" width="1000" height="1000" version="1.1" style="clip-rule:evenodd;fill-rule:evenodd;image-rendering:optimizeQuality;shape-rendering:geometricPrecision;text-rendering:geometricPrecision" viewBox="0 0 1000 1000" id="svg10" sodipodi:docname="O.svg" inkscape:version="1.1.1 (3bf5ae0d25, 2021-09-20)"><svg:text text-anchor="middle" x="286.35266" y="-0.38932037" id="top" inkscape:label="top" style="clip-rule:evenodd;fill-rule:evenodd;image-rendering:optimizeQuality;shape-rendering:geometricPrecision;text-rendering:geometricPrecision">✛</svg:text><svg:metadata id="metadata14"><rdf:RDF><cc:Work rdf:about=""><dc:format>image/svg+xml</dc:format><dc:type rdf:resource="http://purl.org/dc/dcmitype/StillImage" /><dc:title /></cc:Work></rdf:RDF></svg:metadata><sodipodi:namedview pagecolor="#ffffff" bordercolor="#666666" borderopacity="1" objecttolerance="10" gridtolerance="10" guidetolerance="10" inkscape:pageopacity="0" inkscape:pageshadow="2" inkscape:window-width="1920" inkscape:window-height="1009" id="namedview12" showgrid="false" inkscape:zoom="0.84890884" inkscape:cx="165.50658" inkscape:cy="321.5893" inkscape:window-x="0" inkscape:window-y="60" inkscape:window-maximized="1" inkscape:current-layer="svg10" showguides="true" inkscape:guide-bbox="true" inkscape:document-rotation="0" inkscape:pagecheckerboard="0"><sodipodi:guide position="0,1000" orientation="0,1" id="guide16" inkscape:label="" inkscape:locked="true" inkscape:color="rgb(0,0,255)" /><sodipodi:guide position="1763.3122,2036.1693" orientation="1000,0" id="guide18" /><sodipodi:guide position="0,200" orientation="0,1" id="guide20" inkscape:label="base" inkscape:locked="true" inkscape:color="rgb(0,0,255)" /><inkscape:grid type="xygrid" id="grid24" originx="-473.37552" originy="-489.69235" /><sodipodi:guide position="0,0" orientation="0,1" id="guide34" inkscape:label="bottom" inkscape:locked="true" inkscape:color="rgb(0,0,255)" /><sodipodi:guide position="225.05109,1693.3186" orientation="0,1" id="guide44" inkscape:label="" inkscape:locked="false" inkscape:color="rgb(0,0,255)" /><sodipodi:guide position="0,900" orientation="0,1" id="guide46" inkscape:label="" inkscape:locked="true" inkscape:color="rgb(0,0,255)" /><sodipodi:guide position="571.83414,567.08529" orientation="1,0" id="guide841" inkscape:label="width" />    </sodipodi:namedview>
 <svg:defs id="defs4"><inkscape:path-effect effect="spiro" id="path-effect856" is_visible="true" lpeversion="1" /><inkscape:path-effect effect="spiro" id="path-effect137" is_visible="true" lpeversion="1" /><inkscape:path-effect effect="spiro" id="path-effect133" is_visible="true" lpeversion="1" /><inkscape:path-effect effect="spiro" id="path-effect114" is_visible="true" lpeversion="1" /><inkscape:path-effect effect="spiro" id="path-effect853" is_visible="true" lpeversion="1" /><inkscape:path-effect effect="spiro" id="path-effect928" is_visible="true" lpeversion="1" /><inkscape:path-effect effect="spiro" id="path-effect921" is_visible="true" lpeversion="1" /><inkscape:path-effect effect="spiro" id="path-effect917" is_visible="true" lpeversion="1" /><inkscape:path-effect effect="spiro" id="path-effect849" is_visible="true" lpeversion="1" /><inkscape:path-effect effect="spiro" id="path-effect851" is_visible="true" lpeversion="1" />
  <svg:style type="text/css" id="style2">
   
    .fil0 {fill:#EF7F1A;fill-rule:nonzero}
   
  </svg:style>
 <inkscape:path-effect effect="spiro" id="path-effect1214" is_visible="true" lpeversion="1" /><inkscape:path-effect effect="spiro" id="path-effect1195" is_visible="true" lpeversion="1" /><inkscape:path-effect effect="spiro" id="path-effect992" is_visible="true" lpeversion="1" /><inkscape:path-effect effect="spiro" id="path-effect1060" is_visible="true" lpeversion="1" /><inkscape:path-effect effect="spiro" id="path-effect1047" is_visible="true" lpeversion="1" /><inkscape:path-effect effect="spiro" id="path-effect1085" is_visible="true" lpeversion="1" /><inkscape:path-effect effect="spiro" id="path-effect1286" is_visible="true" lpeversion="1" /><inkscape:path-effect effect="spiro" id="path-effect117" is_visible="true" lpeversion="1" /></svg:defs>
 
<svg:g id="path135"><svg:path style="color:#000000;clip-rule:nonzero;fill:#1a5fb4;fill-rule:nonzero;stroke-linecap:round;stroke-linejoin:round;-inkscape-stroke:none;shape-rendering:auto" d="M 280.93164,-28 C 229.27203,-27.760877 179.58136,-9.9034395 138.34961,18.927734 97.24773,47.668094 65.004371,86.622251 41.726562,129.48242 -4.7186946,214.99956 -14.93583,312.36041 -14.855469,404.1875 c 0.07761,88.6773 9.7147924,182.54532 53.416016,265.78516 21.899606,41.71324 52.240554,79.91537 91.144533,108.79882 39.02016,28.96972 86.25732,47.9311 136.10156,50.50782 52.48199,2.71308 103.95394,-12.95526 147.13281,-40.46875 43.03815,-27.42382 77.3136,-65.89143 102.32032,-108.78125 49.89022,-85.56834 62.1538,-184.74469 62.78125,-278.29297 0.61626,-91.88115 -9.88118,-189.3204 -56.85352,-274.49805 C 497.64596,84.549038 465.0964,45.884994 423.77539,17.542969 382.32523,-10.887639 332.5204,-28.238795 280.93164,-28 Z m 0.27734,60 c 37.79229,-0.174933 76.3695,12.894798 108.62891,35.021484 32.38856,22.215269 59.18934,53.611136 78.81055,89.191406 39.35317,71.36138 49.97724,158.24227 49.39453,245.12109 -0.59317,88.43793 -12.84155,176.82387 -54.61719,248.47461 -20.82622,35.71972 -49.02852,66.92558 -82.73047,88.40039 -33.56122,21.38514 -73.39919,33.13508 -111.79101,31.15039 C 232.41709,767.47315 195.85933,753.15906 165.4707,730.59766 134.96589,707.94999 109.96758,676.90843 91.683594,642.08203 55.017633,572.2426 45.218232,488.35086 45.144531,404.13477 45.068231,316.94873 55.459909,229.91164 94.451172,158.11914 113.89162,122.32449 140.4817,90.648875 172.73242,68.097656 204.85327,45.637251 243.36296,32.175182 281.20898,32 Z m 0.42188,49.537109 c -41.51673,-0.588502 -80.94977,14.740097 -112.44141,39.201171 -31.30614,24.317 -54.17903,56.79586 -69.378903,91.56055 -30.269386,69.23122 -30.143241,143.96996 -26.351563,212.60547 3.235908,58.57516 9.506519,121.68707 38.531246,179.55664 14.56249,29.03471 34.82323,56.1588 61.5293,77.19531 26.83393,21.13722 59.76593,35.56392 95.30859,38.14844 40.04909,2.91221 78.96937,-9.54066 110.82032,-31.23828 31.66197,-21.5689 55.69707,-51.47514 72.46289,-84.0586 33.38522,-64.88238 37.71473,-136.90237 37.66211,-203.1875 C 489.72217,336.7362 485.54413,266.91292 454.51172,203.17187 438.93645,171.18004 416.635,141.47077 386.99609,119.0625 357.20334,96.537909 320.50792,82.088194 281.63086,81.537109 Z m -0.85156,59.994141 c 24.28091,0.34418 49.43906,9.82401 70.03125,25.39258 20.74604,15.68489 37.68019,37.71213 49.7539,62.51172 24.26555,49.8418 29.15997,110.18714 29.20899,171.93164 0.0503,63.328 -5.09649,125.32081 -31.01367,175.68945 -12.88539,25.04205 -30.99282,47.00456 -52.89063,61.92188 -21.70883,14.78857 -48.10262,22.77223 -72.68945,20.98437 -21.87452,-1.59063 -44.14352,-10.9538 -62.53321,-25.43945 -18.51754,-14.58637 -33.77641,-34.53855 -45.02343,-56.96289 -22.59429,-45.04854 -29.14083,-99.57969 -32.25586,-155.9668 -3.64621,-66.00223 -2.3314,-130.93897 21.41797,-185.25781 11.8095,-27.01035 29.2712,-51.17124 51.21093,-68.21289 21.75425,-16.89757 48.8852,-26.95891 74.78321,-26.5918 z" id="path2391" /></svg:g><svg:g id="g917" transform="translate(-78.546138,-5.1621745)" /></svg:svg>
